X:1
T:title
M:4/4
Q:120
L:1/8
R:Reel
K:C
 ^f'2 ^g ^a' ^E2C ^g |  ^a'2 _c'4b' ^d |  _b ^a4 _e'3 |  _c3 ^b'3 _c2 |  ^f4 ^a'e3 |  ^c3 _Ea3 ^c | Ef4 ^e'2a' |  _b'2 ^c2a' ^F ^a2 | 